svg/color/bvol.svg

<?xml version="1.0" encoding="UTF-8" ?>
<!DOCTYPE svg PUBLIC "-//W3C//DTD SVG 1.1//EN" "http://www.w3.org/Graphics/SVG/1.1/DTD/svg11.dtd">
<svg width="250pt" height="222pt" viewBox="0 0 250 222" version="1.1" xmlns="http://www.w3.org/2000/svg">
<g id="#ffffffff">
<path fill="#ffffff" opacity="1.00" d=" M 0.00 0.00 L 250.00 0.00 L 250.00 222.00 L 0.00 222.00 L 0.00 0.00 M 73.85 8.62 C 73.91 26.98 73.72 45.34 73.95 63.70 C 130.60 63.66 187.25 63.66 243.90 63.70 C 243.98 45.34 243.93 26.96 243.95 8.60 C 187.25 8.62 130.55 8.58 73.85 8.62 M 6.92 84.32 C 6.73 102.67 6.88 121.03 6.84 139.38 C 25.18 139.40 43.51 139.44 61.85 139.36 C 61.81 121.01 61.88 102.66 61.81 84.31 C 43.51 84.34 25.22 84.32 6.92 84.32 M 74.00 84.29 C 73.65 102.64 73.94 121.02 73.86 139.38 C 114.75 139.49 155.65 139.26 196.54 139.49 C 196.98 121.11 196.62 102.71 196.72 84.31 C 155.81 84.31 114.91 84.37 74.00 84.29 M 73.95 160.02 C 73.77 178.39 73.78 196.76 73.94 215.12 C 92.23 215.16 110.53 215.22 128.82 215.09 C 128.88 196.77 128.84 178.44 128.84 160.12 C 110.54 160.02 92.24 160.19 73.95 160.02 Z" />
</g>
<g id="#02a6c2ff">
<path fill="#02a6c2" opacity="1.00" d=" M 73.85 8.62 C 130.55 8.58 187.25 8.62 243.95 8.60 C 243.93 26.96 243.98 45.34 243.90 63.70 C 187.25 63.66 130.60 63.66 73.95 63.70 C 73.72 45.34 73.91 26.98 73.85 8.62 Z" />
</g>
<g id="#5fcadeff">
<path fill="#5fcade" opacity="1.00" d=" M 6.92 84.32 C 25.22 84.32 43.51 84.34 61.81 84.31 C 61.88 102.66 61.81 121.01 61.85 139.36 C 43.51 139.44 25.18 139.40 6.84 139.38 C 6.88 121.03 6.73 102.67 6.92 84.32 Z" />
<path fill="#5fcade" opacity="1.00" d=" M 74.00 84.29 C 114.91 84.37 155.81 84.31 196.72 84.31 C 196.62 102.71 196.98 121.11 196.54 139.49 C 155.65 139.26 114.75 139.49 73.86 139.38 C 73.94 121.02 73.65 102.64 74.00 84.29 Z" />
</g>
<g id="#abebf4ff">
<path fill="#abebf4" opacity="1.00" d=" M 73.95 160.02 C 92.24 160.19 110.54 160.02 128.84 160.12 C 128.84 178.44 128.88 196.77 128.82 215.09 C 110.53 215.22 92.23 215.16 73.94 215.12 C 73.78 196.76 73.77 178.39 73.95 160.02 Z" />
</g>
</svg>

<?xml version="1.0" encoding="utf-8"?>
<!-- Generator: Adobe Illustrator 26.0.3, SVG Export Plug-In . SVG Version: 6.00 Build 0)  -->
<svg version="1.1" id="Layer_1" xmlns="http://www.w3.org/2000/svg" xmlns:xlink="http://www.w3.org/1999/xlink" x="0px" y="0px"
	 viewBox="0 0 250 222" style="enable-background:new 0 0 250 222;" xml:space="preserve">
<style type="text/css">
	.st0{fill:#02A6C2;}
	.st1{fill:#5FCADE;}
	.st2{fill:#ABEBF4;}
</style>
<g id="_x23_02a6c2ff">
	<path class="st0" d="M73.8,8.6c56.7,0,113.4,0,170.1,0c0,18.4,0,36.7-0.1,55.1c-56.6,0-113.3,0-169.9,0C73.7,45.3,73.9,27,73.8,8.6
		z"/>
</g>
<g id="_x23_5fcadeff">
	<path class="st1" d="M6.9,84.3c18.3,0,36.6,0,54.9,0c0.1,18.4,0,36.7,0,55.1c-18.3,0.1-36.7,0-55,0C6.9,121,6.7,102.7,6.9,84.3z"/>
	<path class="st1" d="M74,84.3c40.9,0.1,81.8,0,122.7,0c-0.1,18.4,0.3,36.8-0.2,55.2c-40.9-0.2-81.8,0-122.7-0.1
		C73.9,121,73.7,102.6,74,84.3z"/>
</g>
<g id="_x23_abebf4ff">
	<path class="st2" d="M73.9,160c18.3,0.2,36.6,0,54.9,0.1c0,18.3,0,36.7,0,55c-18.3,0.1-36.6,0.1-54.9,0
		C73.8,196.8,73.8,178.4,73.9,160z"/>
</g>
</svg>
